assets/images/payments/verifone-dark.svg

<svg width="100" height="60" viewBox="0 0 100 60" version="1.1" xmlns="http://www.w3.org/2000/svg" xmlns:xlink="http://www.w3.org/1999/xlink"><title>Verifone-dark</title><desc>Created with Sketch.</desc><g id="Dark-Payment-badges" stroke="none" stroke-width="1" fill="none" fill-rule="evenodd" transform="translate(-610.000000, -1089.000000)"><g id="Verifone-dark" transform="translate(610.000000, 1089.000000)"><rect id="Rectangle" fill="#1A1919" x="0" y="0" width="100" height="60" rx="4"/><path d="M43.128744,25.6478017 L46.2105051,25.6478017 L46.7059317,23.161681 L43.6236519,23.161681 L43.128744,25.6478017 L43.128744,25.6478017 Z M42.8094403,27.2468534 L45.8919795,27.2468534 L43.9338771,37.0630603 C43.7909556,37.1127155 43.3497406,37.2872845 42.7404437,37.2872845 C41.9181911,37.2872845 41.1638976,36.9681466 41.1638976,35.836681 C41.1638976,35.6238362 41.1885392,35.3815086 41.243529,35.1060776 C41.8559386,32.0429741 42.8094403,27.2468534 42.8094403,27.2468534 L42.8094403,27.2468534 Z M73.4151331,27.0226293 C71.3636519,27.0226293 70.5481433,28.2190086 70.1652901,28.9472845 L70.1289761,28.9472845 L70.247256,27.2489224 L67.2012901,27.2489224 C67.1813174,27.6223707 67.0495495,28.7996121 66.8542321,29.8149569 C66.8542321,29.8149569 66.1507782,33.3779741 66.0177133,34.0602155 C65.9162935,34.5813362 65.7308328,35.3517672 65.7308328,35.7989224 C65.7308328,36.7509052 66.215884,37.2875431 67.298041,37.2875431 C67.9050034,37.2875431 68.342587,37.1222845 68.5018498,37.0630603 L69.5204573,31.9509052 C69.8029283,30.5393534 70.8282799,29.6155603 72.0473925,29.6155603 C73.0309829,29.6155603 73.5012491,30.3298707 73.5012491,30.9138362 C73.5012491,31.4220259 73.3731126,31.9853017 73.2740273,32.4834052 L72.8359249,34.6726293 C72.7837884,34.9353879 72.6722526,35.4402155 72.6722526,35.8361638 C72.6722526,36.8039224 73.2203345,37.2875431 74.2612491,37.2875431 C74.8295631,37.2875431 75.1898498,37.1460776 75.4450853,37.0630603 L76.3591604,32.4803017 C76.5573311,31.4445259 76.6304778,30.8990948 76.6304778,30.2398707 C76.6304778,28.3421121 75.5158976,27.0226293 73.4151331,27.0226293 L73.4151331,27.0226293 Z M59.7237201,29.39625 C58.0008805,29.39625 57.0466007,31.1499569 57.0466007,32.713319 C57.0466007,34.0317672 57.644744,34.9146983 59.0041843,34.9146983 C60.5410444,34.9146983 61.7438157,33.6125431 61.7438157,31.3899569 C61.7438157,30.3730603 61.2001433,29.39625 59.7237201,29.39625 L59.7237201,29.39625 Z M58.8153515,37.2878017 C55.5151877,37.2878017 53.9360478,35.3171121 53.9360478,32.8051293 C53.9360478,29.3584914 56.3127986,27.0226293 59.9856997,27.0226293 C63.1725119,27.0226293 64.864744,28.9439224 64.864744,31.4114224 C64.864744,35.1089224 62.3261365,37.2878017 58.8153515,37.2878017 L58.8153515,37.2878017 Z M47.2732082,34.9242672 C47.2029147,35.2775431 47.1585597,35.5250431 47.1585597,35.829181 C47.1585597,36.9544397 47.9138908,37.2875431 48.7143549,37.2875431 C49.3545188,37.2875431 49.7506007,37.1132328 49.8955973,37.0630603 L51.3774676,29.6222845 L53.7739317,29.6220259 L54.2470512,27.2468534 L51.8508464,27.2471121 L51.9673106,26.6621121 C52.184157,25.5650431 52.7026689,25.0827155 53.5996246,25.0827155 C54.1985461,25.0827155 54.6830785,25.18875 54.8514198,25.2324569 L55.3024915,22.9739224 C55.1102867,22.9255603 54.224744,22.7096121 52.9140683,22.7096121 C50.8254949,22.7096121 49.4572355,23.9727155 49.0525939,26.0070259 L48.8048805,27.2468534 L47.2446758,27.2468534 L46.7712969,29.6220259 L48.3325392,29.6220259 C48.3325392,29.6220259 47.7167577,32.6985776 47.2732082,34.9242672 L47.2732082,34.9242672 Z M40.1779727,27.0228879 C38.6309966,27.0228879 37.7802116,28.0925431 37.4474198,28.9457328 L37.411884,28.9457328 L37.530942,27.2468534 L34.4836792,27.2468534 C34.4567031,27.8357328 34.3329761,28.8314224 34.0224915,30.3968534 C33.7078567,31.9832328 33.4012628,33.5657328 33.0848123,35.105819 C33.0306007,35.3690948 33.0064778,35.626681 33.0064778,35.8446983 C33.0064778,36.6513362 33.4067099,37.2867672 34.5895085,37.2867672 C35.1754608,37.2867672 35.5824369,37.1352155 35.7777543,37.0630603 L36.6843072,32.5123707 C37.0108737,30.7713362 37.6040887,29.6202155 39.3251126,29.6202155 C40.1079386,29.6202155 40.8515973,29.7865086 41.0074881,29.8320259 L41.5291126,27.21375 C41.4165392,27.1749569 40.9646894,27.0228879 40.1779727,27.0228879 L40.1779727,27.0228879 Z M84.8838703,31.2254741 C85.0488396,30.3254741 84.5230648,29.39625 83.3348191,29.39625 C81.8838157,29.39625 81.2465051,30.3834052 80.961959,31.2254741 L84.8838703,31.2254741 L84.8838703,31.2254741 Z M86.2593925,34.8782328 C86.2593925,36.2434914 84.9318567,37.2903879 82.5810444,37.2903879 C79.3319795,37.2903879 77.7432423,35.2749569 77.7432423,32.8077155 C77.7432423,30.3585776 79.3758157,27.0252155 83.3607577,27.0252155 C85.9880751,27.0252155 87.9526621,28.3250431 87.9526621,31.3007328 C87.9526621,32.0326293 87.7889898,32.8281466 87.7186962,33.1467672 L80.7347372,33.1467672 C80.7230648,33.860819 81.3274334,35.098319 83.7550239,35.098319 C84.8369215,35.098319 86.062,34.7176293 86.2593925,34.6206466 L86.2593925,34.8782328 L86.2593925,34.8782328 Z M29.1927304,31.2254741 C29.3574403,30.3254741 28.8316655,29.39625 27.6434198,29.39625 C26.1924164,29.39625 25.5553652,30.3834052 25.2705597,31.2254741 L29.1927304,31.2254741 L29.1927304,31.2254741 Z M30.5679932,34.8782328 C30.5679932,36.2434914 29.2404573,37.2903879 26.8899044,37.2903879 C23.6405802,37.2903879 22.0521024,35.2749569 22.0521024,32.8077155 C22.0521024,30.3585776 23.6844164,27.0252155 27.6696177,27.0252155 C30.2969352,27.0252155 32.2615222,28.3250431 32.2615222,31.3007328 C32.2615222,32.0326293 32.0978498,32.8281466 32.0272969,33.1467672 L25.0435973,33.1467672 C25.0319249,33.860819 25.6360341,35.098319 28.0636246,35.098319 C29.1455222,35.098319 30.3706007,34.7176293 30.5679932,34.6206466 L30.5679932,34.8782328 L30.5679932,34.8782328 Z M12.0473379,23.9067672 L15.1480341,23.9067672 L15.1480341,33.6668534 C15.1480341,35.1345259 15.8815768,35.88375 17.0591877,35.88375 C17.1792833,35.88375 17.2500956,35.8684914 17.2734403,35.8628017 C16.7572628,36.6407328 16.0880478,37.27875 14.5514471,37.27875 C12.9256177,37.27875 12.0473379,36.1547845 12.0473379,34.4680603 L12.0473379,23.9067672 L12.0473379,23.9067672 Z" id="Fill-1" fill="#FFF"/><path d="M16.0117884,32.65875 L16.0117884,33.6831466 C16.0117884,34.6726293 16.5484573,35.0271983 17.1344096,35.0271983 C17.7333311,35.0271983 18.0539317,34.6227155 18.3480751,34.1628879 C18.8409078,33.3929741 24.8633242,23.9067672 24.8633242,23.9067672 L21.6404573,23.9067672 L16.0117884,32.65875" id="Fill-2" fill="#00A3DA"/></g></g></svg>

<svg width="100" height="60" xmlns="http://www.w3.org/2000/svg"><g fill="none" fill-rule="evenodd"><rect fill="#1A1919" width="100" height="60" rx="4"/><path d="M43.129 25.648h3.082l.495-2.486h-3.082l-.495 2.486zm-.32 1.599h3.083l-1.958 9.816c-.143.05-.584.224-1.194.224-.822 0-1.576-.319-1.576-1.45 0-.213.025-.455.08-.73.612-3.064 1.565-7.86 1.565-7.86zm30.606-.224c-2.051 0-2.867 1.196-3.25 1.924h-.036l.118-1.698h-3.046c-.02.373-.151 1.55-.347 2.566 0 0-.703 3.563-.836 4.245-.102.521-.287 1.292-.287 1.739 0 .952.485 1.489 1.567 1.489.607 0 1.045-.166 1.204-.225l1.018-5.112c.283-1.412 1.308-2.335 2.527-2.335.984 0 1.454.714 1.454 1.298 0 .508-.128 1.071-.227 1.57l-.438 2.189c-.052.262-.164.767-.164 1.163 0 .968.548 1.452 1.59 1.452.568 0 .928-.142 1.183-.225l.914-4.583c.198-1.035.271-1.58.271-2.24 0-1.898-1.114-3.217-3.215-3.217zm-13.691 2.373c-1.723 0-2.677 1.754-2.677 3.317 0 1.319.598 2.202 1.957 2.202 1.537 0 2.74-1.302 2.74-3.525 0-1.017-.544-1.994-2.02-1.994zm-.909 7.892c-3.3 0-4.879-1.97-4.879-4.483 0-3.447 2.377-5.782 6.05-5.782 3.187 0 4.879 1.92 4.879 4.388 0 3.698-2.539 5.877-6.05 5.877zm-11.542-2.364c-.07.354-.114.601-.114.905 0 1.125.755 1.459 1.555 1.459.64 0 1.037-.175 1.182-.225l1.481-7.44 2.397-.001.473-2.375h-2.396l.116-.585c.217-1.097.736-1.58 1.633-1.58a5.27 5.27 0 011.251.15l.451-2.258c-.192-.048-1.077-.264-2.388-.264-2.089 0-3.457 1.263-3.861 3.297l-.248 1.24h-1.56l-.474 2.375h1.562l-1.06 5.302zm-7.095-7.901c-1.547 0-2.398 1.07-2.73 1.923h-.036l.119-1.7h-3.047c-.027.59-.151 1.585-.462 3.15-.314 1.587-.62 3.17-.937 4.71-.054.263-.079.52-.079.739 0 .806.4 1.442 1.584 1.442.585 0 .992-.152 1.188-.224l.906-4.55c.327-1.742.92-2.893 2.641-2.893.783 0 1.527.167 1.682.212l.522-2.618c-.112-.039-.564-.191-1.351-.191zm44.706 4.202c.165-.9-.36-1.829-1.55-1.829-1.45 0-2.087.987-2.372 1.83h3.922zm1.375 3.653c0 1.365-1.327 2.412-3.678 2.412-3.249 0-4.838-2.015-4.838-4.482 0-2.45 1.633-5.783 5.618-5.783 2.627 0 4.592 1.3 4.592 4.276 0 .732-.164 1.527-.234 1.846h-6.984c-.012.714.592 1.951 3.02 1.951 1.082 0 2.307-.38 2.504-.477v.257zm-57.066-3.653c.164-.9-.361-1.829-1.55-1.829-1.45 0-2.088.987-2.372 1.83h3.922zm1.375 3.653c0 1.365-1.328 2.412-3.678 2.412-3.25 0-4.838-2.015-4.838-4.482 0-2.45 1.632-5.783 5.618-5.783 2.627 0 4.592 1.3 4.592 4.276 0 .732-.164 1.527-.235 1.846h-6.983c-.012.714.592 1.951 3.02 1.951 1.082 0 2.307-.38 2.504-.477v.257zm-18.52-10.971h3.1v9.76c0 1.468.734 2.217 1.911 2.217.12 0 .191-.016.214-.021-.516.778-1.185 1.416-2.722 1.416-1.625 0-2.504-1.124-2.504-2.81V23.906z" fill="#FFF"/><path d="M16.012 32.659v1.024c0 .99.536 1.344 1.122 1.344.6 0 .92-.404 1.214-.864.493-.77 6.515-10.256 6.515-10.256H21.64l-5.628 8.752" fill="#00A3DA"/></g></svg>
